!!!COM: Palestrina, Giovanni Perluigi da
!!!OPR: Missa In te Domine speravi (1599)
!!!OMD: Credo
!!!OTL: First Section
**kern	**kern	**kern	**kern	**kern	**kern
*Ibass	*Itenor	*Itenor	*Icalto	*Icant	*Icant
!Bassus	!Tenor 2	!Tenor 1	!Altus	!Cantus 2	!Cantus 1
*clefF4	*clefGv2	*clefGv2	*clefG2	*clefG2	*clefG2
*k[]	*k[]	*k[]	*k[]	*k[]	*k[]
*C:ion	*C:ion	*C:ion	*C:ion	*C:ion	*C:ion
*M4/2	*M4/2	*M4/2	*M4/2	*M4/2	*M4/2
=1	=1	=1	=1	=1	=1
0r	0r	1c	0r	0r	0r
.	.	2c	.	.	.
.	.	2c	.	.	.
=2	=2	=2	=2	=2	=2
1r	0r	1B	0r	0r	0r
1F	.	1A	.	.	.
=3	=3	=3	=3	=3	=3
2F	2r	1c	0r	0r	0r
2F	2c	.	.	.	.
1E	2c	1G	.	.	.
.	2c	.	.	.	.
=4	=4	=4	=4	=4	=4
1D	1B	1d	1f	0r	1r
1F	1A	2c	2f	.	1cc
.	.	2c	2f	.	.
=5	=5	=5	=5	=5	=5
1C	1c	1g	1e	0r	2cc
.	.	.	.	.	2cc
2r	4G	1g	1d	.	1b
.	4A	.	.	.	.
2G	4B	.	.	.	.
.	4c	.	.	.	.
=6	=6	=6	=6	=6	=6
4D	1d	2r	1f	0r	1a
4E	.	.	.	.	.
4F	.	2f	.	.	.
4G	.	.	.	.	.
4A	2r	2e	1c	.	1cc
4B	.	.	.	.	.
4c	2e	2c	.	.	.
4A	.	.	.	.	.
=7	=7	=7	=7	=7	=7
2B	2d	2d	2r	0r	0g
2c	1c	2e	2c	.	.
1G	.	1d	2d	.	.
.	2B	.	2g	.	.
=8	=8	=8	=8	=8	=8
0C	2c	4c	1e	1cc	2r
.	.	4d	.	.	.
.	2c	4e	.	.	2ee
.	.	4f	.	.	.
.	2c	1g	2e	2cc	2ee
.	2c	.	2g	2cc	2ee
=9	=9	=9	=9	=9	=9
0r	1G	0r	2g	1b	1dd
.	.	.	2g	.	.
.	2A	.	2e	2a	2cc
.	[2A	.	2f	2a	2cc
=10	=10	=10	=10	=10	=10
1c	4A]	1r	2e	1cc	0ee
.	4B	.	.	.	.
.	4c	.	2.e	.	.
.	4d	.	.	.	.
2c	2e	2r	.	2.g	.
.	.	.	4f	.	.
2c	2c	2g	2g	.	.
.	.	.	.	4a	.
=11	=11	=11	=11	=11	=11
1B	1d	2g	1G	4b	1dd
.	.	.	.	4cc	.
.	.	2g	.	4dd	.
.	.	.	.	4b	.
2A	1r	2f	2.c	4cc	2r
.	.	.	.	4dd	.
2A	.	[2e	.	[2ee	2cc
.	.	.	4d	.	.
=12	=12	=12	=12	=12	=12
1c	1r	2e]	4e	4ee]	1cc
.	.	.	4f	4dd	.
.	.	2e	2g	1cc	.
1G	2r	1d	1g	.	1dd
.	[2g	.	.	2b	.
=13	=13	=13	=13	=13	=13
2r	4g]	1c	1e	2cc	2.ee
.	4g	.	.	.	.
2.c	2g	.	.	2.ee	.
.	.	.	.	.	4ff
.	2e	2r	1r	.	1gg
4c	.	.	.	4ee	.
2c	2c	[2g	.	2ee	.
=14	=14	=14	=14	=14	=14
2B	2d	4g]	0r	2dd	0r
.	.	4g	.	.	.
2c	4c	2g	.	2ee	.
.	4d	.	.	.	.
2A	2e	2a	.	2cc	.
2B	2d	2g	.	2dd	.
=15	=15	=15	=15	=15	=15
0c	1g	2.e	1r	[0ee	2r
.	.	.	.	.	2.cc
.	.	4f	.	.	.
.	1r	2g	2r	.	.
.	.	.	.	.	4cc
.	.	[2e	[2g	.	2cc
=16	=16	=16	=16	=16	=16
1r	0r	2e]	4g]	1ee]	2b
.	.	.	4g	.	.
.	.	2c	2g	.	2cc
2r	.	1d	2f#	1r	2a
2G	.	.	2g	.	2b
=17	=17	=17	=17	=17	=17
2A	2r	1c	2.e	0r	1cc
1c	2c	.	.	.	.
.	.	.	4f#	.	.
.	1d	1G	1g	.	1r
2B	.	.	.	.	.
=18	=18	=18	=18	=18	=18
1A	2f	2A	0r	0r	0r
.	1e	1c	.	.	.
1G	.	.	.	.	.
.	[2d	2B	.	.	.
=19	=19	=19	=19	=19	=19
2.F	4d]	2.A	0r	2r	0r
.	4c	.	.	.	.
.	1c	.	.	2cc	.
4E	.	4G	.	.	.
1D	.	2F	.	2dd	.
.	2B	2F	.	[2ff	.
=20	=20	=20	=20	=20	=20
1C	1c	1G	2r	2ff]	0r
.	.	.	2g	2ee	.
1r	2r	1r	2a	2cc	.
.	2c	.	2cc	2ee	.
=21	=21	=21	=21	=21	=21
0r	2d	0r	2b	2dd	1r
.	1f	.	4a	4cc	.
.	.	.	4g	4b	.
.	.	.	4a	2a	1cc
.	.	.	4b	.	.
.	2e	.	[2cc	2g	.
=22	=22	=22	=22	=22	=22
0r	1d	0r	2cc]	2a	2dd
.	.	.	2b	2b	1ff
.	1c	.	2a	1cc	.
.	.	.	[2g	.	2ee
=23	=23	=23	=23	=23	=23
1r	1d	2r	2g]	2.a	2.dd
.	.	1d	2f#	.	.
.	.	.	.	4a	4dd
2r	1G	.	2g	1b	2dd
[2G	.	2G	[2g	.	[2b
=24	=24	=24	=24	=24	=24
2G]	0r	2d	2g]	0r	2b]
2C	.	2e	2g	.	2cc
2F	.	2f	2a	.	2cc
2G	.	2d	2g	.	2b
=25	=25	=25	=25	=25	=25
2C	1r	4e	2.g	1r	2cc
.	.	4f	.	.	.
2E	.	1g	.	.	2b
.	.	.	4g	.	.
1D	2r	.	2a	2r	1dd
.	[2d	4f#	[2a	[2dd	.
.	.	4e	.	.	.
=26	=26	=26	=26	=26	=26
0r	2d]	2f#	2a]	2dd]	0r
.	2G	2g	2b	2dd	.
.	2c	2g	2cc	2ee	.
.	2d	4f	4b	4dd	.
.	.	4e	4a	4cc	.
=27	=27	=27	=27	=27	=27
0r	2G	1d	1g	4b	0r
.	.	.	.	4cc	.
.	2B	.	.	1dd	.
.	1A	1e	2.a	.	.
.	.	.	.	2cc#	.
.	.	.	4g	.	.
=28	=28	=28	=28	=28	=28
2r	2r	1d	2f#	4dd	1r
.	.	.	.	4cc	.
2.G	2.d	.	1g	4b	.
.	.	.	.	4a	.
.	.	1r	.	2b	2r
4G	4e	.	.	.	.
2F	2f	.	2c	2a	[2cc
=29	=29	=29	=29	=29	=29
1G	2e	0r	1r	0g	4cc]
.	.	.	.	.	4cc
.	2d	.	.	.	2b
2.C	[1e	.	2r	.	1cc
.	.	.	[2g	.	.
4D	.	.	.	.	.
=30	=30	=30	=30	=30	=30
4E	2e]	0r	4g]	2r	1g
4F	.	.	4a	.	.
2G	2d	.	2b-	2.dd	.
1D	2.d	.	1a	.	1r
.	.	.	.	4ee	.
.	.	.	.	2ff	.
.	4d	.	.	.	.
=31	=31	=31	=31	=31	=31
2r	1G	1r	2g	2ee	0r
2.G	.	.	2.b-	4dd	.
.	.	.	.	4cc	.
.	1r	2.d	.	1dd	.
4A	.	.	4a	.	.
2B-	.	.	4f	.	.
.	.	4e	4g	.	.
=32	=32	=32	=32	=32	=32
2A	0r	2f	2a	2cc	2r
2.G	.	2g	2d	4b	2.dd
.	.	.	.	4a	.
.	.	1d	2g	4b	.
4F	.	.	.	4cc	4ee
2D	.	.	2a	4dd	2ff
.	.	.	.	4cc	.
=33	=33	=33	=33	=33	=33
2E	0r	1r	2g	2b	2ee
2F	.	.	2f	2a	1dd
2G	.	2B	1e	2g	.
2A	.	2c	.	2e	2cc
=34	=34	=34	=34	=34	=34
0G	0r	2d	1r	0g	2b
.	.	2e	.	.	1cc
.	.	1d	2r	.	.
.	.	.	[2g	.	2b
=35	=35	=35	=35	=35	=35
0r	1.c	1.e	2g]	0r	0cc
.	.	.	2g	.	.
.	.	.	2a	.	.
.	2c	2e	2g	.	.
=36	=36	=36	=36	=36	=36
0r	2d	2f	2f	2r	0r
.	2c	2g	4e	1cc	.
.	.	.	4d	.	.
.	4A	1a	2.e	.	.
.	4B	.	.	.	.
.	4c	.	.	2cc	.
.	4A	.	4f	.	.
=37	=37	=37	=37	=37	=37
0r	2B	1g	2d	2dd	2r
.	2c	.	2e	2cc	1cc
.	1F	1r	1f	4a	.
.	.	.	.	4b	.
.	.	.	.	4cc	2cc
.	.	.	.	4a	.
=38	=38	=38	=38	=38	=38
0r	0r	2r	0r	4b	2dd
.	.	.	.	4g	.
.	.	1f	.	4a	2cc
.	.	.	.	4b	.
.	.	.	.	2.cc	4a
.	.	.	.	.	4b
.	.	2f	.	.	4cc
.	.	.	.	4dd	4a
=39	=39	=39	=39	=39	=39
0r	0r	2g	0r	4ee	2b
.	.	.	.	4dd	.
.	.	2f	.	2.ff	2cc
.	.	4d	.	.	2b
.	.	4e	.	4ee	.
.	.	4f	.	2dd	[2a
.	.	4d	.	.	.
=40	=40	=40	=40	=40	=40
0r	0r	1e	0r	4cc	4a]
.	.	.	.	4b	4g
.	.	.	.	4b	1g
.	.	.	.	8a	.
.	.	.	.	8g	.
.	.	2d	.	2a	.
.	.	2d	.	2a	2f#
=41	=41	=41	=41	=41	=41
0r	2r	0G	0r	2b	0g
.	2G	.	.	2g	.
.	2d	.	.	2b	.
.	2d	.	.	2b	.
=42	=42	=42	=42	=42	=42
1C	1e	0r	0r	1cc	2r
.	.	.	.	.	2g
2G	2d	.	.	1dd	2b
2G	2g	.	.	.	2b
=43	=43	=43	=43	=43	=43
1A	2e	0r	1c	0r	1cc
.	2c	.	.	.	.
2G	2.d	.	2g	.	2b
2B-	.	.	2g	.	2dd
.	4d	.	.	.	.
=44	=44	=44	=44	=44	=44
2A	2e	0r	1a	0r	2cc
2F	2f	.	.	.	2a
1G	2.d	.	2g	.	4b
.	.	.	.	.	4cc
.	.	.	2b	.	[2dd
.	4e	.	.	.	.
=45	=45	=45	=45	=45	=45
1A	4f	1r	2a	0r	4dd]
.	4e	.	.	.	4cc
.	4d	.	2f	.	1cc
.	4c	.	.	.	.
[1G	2d	2r	2.g	.	.
.	2d	2G	.	.	4b
.	.	.	4g	.	4a
=46	=46	=46	=46	=46	=46
2G]	1G	1d	2g	1r	2b
2G	.	.	2G	.	2b
1C	1r	1e	1g	2r	1cc
.	.	.	.	2g	.
=47	=47	=47	=47	=47	=47
0r	0r	2d	1a	1dd	2r
.	.	2f	.	.	2a
.	.	2e	2g	1ee	2b
.	.	2c	2g	.	2cc
=48	=48	=48	=48	=48	=48
0r	0r	1d	2.f	2dd	2a
.	.	.	.	2ff	2b
.	.	.	4g	.	.
.	.	1c	4a	2ee	2cc
.	.	.	4b	.	.
.	.	.	[2cc	2cc	2a
=49	=49	=49	=49	=49	=49
1r	2r	1r	2cc]	1dd	1g
.	1g	.	2b	.	.
2r	.	1g	1cc	[1cc	2e
[2c	2e	.	.	.	[2ee
=50	=50	=50	=50	=50	=50
2c]	2g	2e	1c	1cc]	2ee]
2A	2a	1f	.	.	2cc
2B	1g	.	1r	1r	2dd
2c	.	2e	.	.	2ee
=51	=51	=51	=51	=51	=51
2.F	1f	2d	0r	1r	2a
.	.	2c	.	.	2a
4G	.	.	.	.	.
1A	1e	2r	.	2r	2.cc
.	.	2c	.	2ee	.
.	.	.	.	.	4b
=52	=52	=52	=52	=52	=52
1A	2e	2c	0r	2ee	2a
.	1f	2A	.	2cc	2a
1r	.	2B	.	2dd	2g
.	2e	2c	.	2ee	2g
=53	=53	=53	=53	=53	=53
1D	2f	1d	1r	2a	4f
.	.	.	.	.	4g
.	2d	.	.	1ff	4a
.	.	.	.	.	4b
1A	2c	1r	2r	.	2.cc
.	2c	.	2a	4ee	.
.	.	.	.	4dd	4dd
=54	=54	=54	=54	=54	=54
2A	0r	2r	2a	2cc	2ee
2B-	.	1d	2f	1dd	2dd
2B-	.	.	2g	.	1r
2A	.	2e	2a	2cc	.
=55	=55	=55	=55	=55	=55
1G	0r	1g	2d	2b-	0r
.	.	.	1b-	1dd	.
1G	.	1g	.	.	.
.	.	.	4a	4cc	.
.	.	.	4g	4b-	.
=56	=56	=56	=56	=56	=56
0r	1r	2f	2a	2cc	2r
.	.	2g	1g	2b-	1dd
.	2r	1d	.	1a	.
.	[2d	.	2f#	.	2dd
=57	=57	=57	=57	=57	=57
1.G	2d]	2G	1g	1g	2.b
.	2d	1d	.	.	.
.	.	.	.	.	4a
.	[1g	.	1r	1r	4b
.	.	.	.	.	4cc
2G	.	2d	.	.	4dd
.	.	.	.	.	4b
=58	=58	=58	=58	=58	=58
1c	2g]	1.e	1.g	0r	1cc
.	2c	.	.	.	.
2c	2e	.	.	.	2cc
2B	[2g	2d	2g	.	2dd
=59	=59	=59	=59	=59	=59
2A	2g]	2.c	1cc	0r	2ee
2A	2f	.	.	.	2cc
.	.	4d	.	.	.
1G	2e	4e	2cc	.	1gg
.	.	4f	.	.	.
.	[2d	2g	2b	.	.
=60	=60	=60	=60	=60	=60
2A	4d]	2e	2a	1r	1r
.	4c	.	.	.	.
2F	2.c	2f	2a	.	.
1G	.	1d	2g	2r	2r
.	8B	.	.	.	.
.	8A	.	.	.	.
.	2B	.	4r	2g	2dd
.	.	.	4g	.	.
=61	=61	=61	=61	=61	=61
0r	1G	0r	2g	2dd	2b
.	.	.	2g	2dd	2b
.	1r	.	1c	1ee	1cc
=62	=62	=62	=62	=62	=62
0r	0r	2r	2f	2cc	2a
.	.	2G	2g	2b	2g
.	.	2d	1a	2a	4f#
.	.	.	.	.	4g
.	.	2d	.	2dd	4a
.	.	.	.	.	4f#
=63	=63	=63	=63	=63	=63
0r	2r	1e	2r	2b	1g
.	2c	.	2g	1cc	.
.	2g	2c	2e	.	1r
.	2g	2B	2d	2dd	.
=64	=64	=64	=64	=64	=64
1r	1a	4A	2e	2.cc	0r
.	.	4G	.	.	.
.	.	4F	1a	.	.
.	.	4G	.	4b	.
2r	2f	4A	.	1cc	.
.	.	4B	.	.	.
2C	2e	[2c	2g	.	.
=65	=65	=65	=65	=65	=65
2G	1d	2c]	2.g	1dd	1r
2G	.	2B	.	.	.
.	.	.	4f	.	.
1A	1c	[1c	4e	1r	2r
.	.	.	4d	.	.
.	.	.	4c	.	2cc
.	.	.	4B	.	.
=66	=66	=66	=66	=66	=66
2F	2r	1c]	4A	0r	2cc
.	.	.	4B	.	.
2E	2G	.	1c	.	2ee
1D	1d	1r	.	.	1ff
.	.	.	2B	.	.
=67	=67	=67	=67	=67	=67
0C	2e	0r	2c	1r	2ee
.	2e	.	2c	.	2ee
.	1c	.	1g	2r	4ee
.	.	.	.	.	4dd
.	.	.	.	2g	4ee
.	.	.	.	.	4ff
=68	=68	=68	=68	=68	=68
0r	1B	1G	2.g	1dd	1gg
.	.	.	4f	.	.
.	1r	1c	4e	2.ee	2gg
.	.	.	4d	.	.
.	.	.	2e	.	2g
.	.	.	.	4dd	.
=69	=69	=69	=69	=69	=69
0r	0r	2A	2a	2cc	2cc
.	.	2B	1g	2b	2dd
.	.	2c	.	1a	2ee
.	.	2d	2f#	.	2dd
=70	=70	=70	=70	=70	=70
0r	0r	1G	1g	1b	1dd
.	.	1r	1r	1r	1r
=71	=71	=71	=71	=71	=71
0C	0c	0r	0e	0cc	2.ee
.	.	.	.	.	4ff
.	.	.	.	.	1gg
=72	=72	=72	=72	=72	=72
1F	1A	0r	1a	1cc	1ff
1C	1c	.	1g	1cc	1ee
=73	=73	=73	=73	=73	=73
1G	1d	0r	1.g	1b	1dd
1C	1e	.	.	1cc	1cc
.	.	.	2g	.	.
=74	=74	=74	=74	=74	=74
0G	1d	1r	1g	1dd	1b
.	2r	1G	2r	1b	1dd
.	2g	.	2g	.	.
=75	=75	=75	=75	=75	=75
0r	2e	1c	0g	1cc	1ee
.	2c	.	.	.	.
.	2.d	1G	.	1b	1dd
.	4e	.	.	.	.
=76	=76	=76	=76	=76	=76
0r	4f#	1d	2a	1a	1dd
.	4g	.	.	.	.
.	1a	.	2f#	.	.
.	.	1G	1g	1dd	1b
.	[2g	.	.	.	.
=77	=77	=77	=77	=77	=77
0r	2g]	0d	1a	0dd	0a
.	4f#	.	.	.	.
.	4e	.	.	.	.
.	1f#	.	2r	.	.
.	.	.	[2d	.	.
=78	=78	=78	=78	=78	=78
1.G	1g	1.B	2d]	1.dd	1.b
.	.	.	2d	.	.
.	2r	.	1d	.	.
2G	[2d	2B	.	2dd	2b
=79	=79	=79	=79	=79	=79
1G	2d]	1B	0g	1b	1dd
.	2g	.	.	.	.
1C	2e	1c	.	1ee	1cc
.	2e	.	.	.	.
=80	=80	=80	=80	=80	=80
1.F	2f	1.A	1.a	2.cc	2r
.	2f	.	.	.	1cc
.	.	.	.	8dd	.
.	.	.	.	8ee	.
.	2.c	.	.	2ff	.
2F	.	2F	2a	2ff	2cc
.	4d	.	.	.	.
=81	=81	=81	=81	=81	=81
1C	1e	2G	1g	1ee	2cc
.	.	2.c	.	.	2ee
1G	1r	.	2r	1r	1dd
.	.	8B	.	.	.
.	.	8A	.	.	.
.	.	2B	[2g	.	.
=82	=82	=82	=82	=82	=82
1A	1r	1c	4g]	2r	1cc
.	.	.	8f#	.	.
.	.	.	8e	.	.
.	.	.	2f#	2.cc	.
1G	2r	1d	1g	.	1r
.	.	.	.	8b	.
.	.	.	.	8a	.
.	2d	.	.	2b	.
=83	=83	=83	=83	=83	=83
1E	1e	2r	1g	2cc	0r
.	.	2G	.	2b	.
1F	2c	2A	2.f	2a	.
.	[2d	2A	.	2a	.
.	.	.	4e	.	.
=84	=84	=84	=84	=84	=84
0G	2d]	2B	2d	0g	1r
.	1c	2c	2e	.	.
.	.	1d	2d	.	1dd
.	2B	.	2g	.	.
=85	=85	=85	=85	=85	=85
1r	1c	2r	1g	2r	1ee
.	.	2c	.	2cc	.
[1G	1r	2d	1g	2b	1dd
.	.	2d	.	2b	.
=86	=86	=86	=86	=86	=86
1G]	1.G	1d	1.g	1dd	1b
1C	.	1c	.	1ee	1cc
.	2A	.	2g	.	.
=87	=87	=87	=87	=87	=87
0G	0B	0d	0g	0dd	0b
*-	*-	*-	*-	*-	*-
!!!CDT: 1525/^1526/-1594/2/2
!!!OCY: Italia
!!!AGN: Mass (Parody)
!!!AST: renaissance, vocal
!!!ASW: Motet 1532 (Lupus Hellinck)
!!!PWK: Masses, Book 9
!!!RNB: Cadence finals: G,D
!!!YOR: Le Opere Complete, v. 25, p. 131
!!!YOO: Rome, Italy: Fratelli Scalera
!!!END: 1992//
!!!EED: John Miller
!!!YEC: Copyright 2000, John Miller
!!!YEN: United States of America
!!!YEM: Rights to all derivative electronic formats reserved.
!!!YEM: Refer to licensing agreement for further details.
!!!YEM: This file must be accompanied by the licensing agreement.
!!!YEM: A copy of the licensing agreement may be found at http://www.music-cog.ohio-state.edu/HumdrumDatabases/Palestrina/license.txt
!!!EMD: converted to Humdrum by Bret Aarden
